X:3343
T:Knutsford (J.B.Milne)
O:england
M:4/4
L:1/8
K:G
"Introduction"B2c2|dedc B2G2|D2G2B4|g2fg agfg|e6f2|
gecA EAce|dBGE D4|d2^cd e2f2|g2B2c2^c2|]
dedc B2G2|D2G2B2AB|cdcB A2B2|c6AB|
cdcB A2F2|D2F2A4|c2Bc dcBA|Bcdc B2Bc|
dedc B2G2|D2G2B4|g2fg agfg|e6f2|
gecA EAce|dBGE D4|d2^cd e2f2|g6Bc|]
d2B2e2B2|d2B2e2B2|d2^cd ed=cB|c6AB|
c2A2d2A2|c2A2d2A2|c2Bc dcBA|Bcdc B2Bc|
d2B2e2B2|d2B2e2B2|g2fg agfg|e6f2|
gecA EAce|dBGE D4|d2^cd e2f2|g6|]


